my-app/src/IMG/Github - Negative.svg

<svg width="48" height="48" viewBox="0 0 48 48" fill="none" xmlns="http://www.w3.org/2000/svg">
<g clip-path="url(#clip0_16_243)">
<path fill-rule="evenodd" clip-rule="evenodd" d="M24.0005 1C18.303 1.00296 12.7923 3.02092 8.45374 6.69305C4.11521 10.3652 1.23181 15.452 0.319089 21.044C-0.593628 26.636 0.523853 32.3684 3.47174 37.2164C6.41963 42.0643 11.0057 45.7115 16.4099 47.5059C17.6021 47.7272 18.0512 46.9883 18.0512 46.36C18.0512 45.7317 18.0273 43.91 18.0194 41.9184C11.3428 43.3608 9.93197 39.101 9.93197 39.101C8.84305 36.3349 7.26927 35.6078 7.26927 35.6078C5.09143 34.1299 7.43223 34.1576 7.43223 34.1576C9.84455 34.3275 11.1123 36.6194 11.1123 36.6194C13.2504 40.2667 16.7278 39.2116 18.0949 38.5952C18.3095 37.0501 18.9335 35.999 19.621 35.4023C14.2877 34.8017 8.68408 32.7548 8.68408 23.6108C8.65102 21.2394 9.53605 18.9461 11.156 17.2054C10.9096 16.6047 10.087 14.1785 11.3905 10.8829C11.3905 10.8829 13.4054 10.2427 17.9916 13.3289C21.9253 12.2592 26.0757 12.2592 30.0095 13.3289C34.5917 10.2427 36.6026 10.8829 36.6026 10.8829C37.9101 14.1706 37.0875 16.5968 36.8411 17.2054C38.4662 18.9464 39.353 21.2437 39.317 23.6187C39.317 32.7824 33.7015 34.8017 28.3602 35.3905C29.2186 36.1333 29.9856 37.5836 29.9856 39.8122C29.9856 43.0051 29.9578 45.5736 29.9578 46.36C29.9578 46.9962 30.391 47.7391 31.6071 47.5059C37.0119 45.7113 41.5984 42.0634 44.5462 37.2147C47.4941 32.3659 48.611 26.6326 47.6972 21.0401C46.7835 15.4476 43.8986 10.3607 39.5587 6.68921C35.2187 3.01771 29.7067 1.00108 24.0085 1H24.0005Z" fill="white"/>
<path d="M9.08887 35.2643C9.03721 35.3828 8.84645 35.4184 8.69146 35.3354C8.53646 35.2524 8.42122 35.0983 8.47686 34.9758C8.5325 34.8533 8.71928 34.8217 8.87428 34.9047C9.02927 34.9876 9.14848 35.1457 9.08887 35.2643Z" fill="white"/>
<path d="M10.0626 36.3423C9.98028 36.3835 9.88612 36.395 9.79622 36.3748C9.70632 36.3547 9.62629 36.304 9.56979 36.2316C9.41479 36.0657 9.38298 35.8365 9.50221 35.7337C9.62143 35.631 9.83606 35.6784 9.99105 35.8444C10.146 36.0104 10.1818 36.2395 10.0626 36.3423Z" fill="white"/>
<path d="M11.0085 37.7136C10.8614 37.8163 10.6111 37.7136 10.472 37.5081C10.4335 37.4712 10.4029 37.427 10.382 37.3782C10.3611 37.3293 10.3503 37.2767 10.3503 37.2236C10.3503 37.1705 10.3611 37.1179 10.382 37.069C10.4029 37.0201 10.4335 36.9759 10.472 36.9391C10.619 36.8403 10.8694 36.9391 11.0085 37.1406C11.1476 37.3421 11.1516 37.6108 11.0085 37.7136V37.7136Z" fill="white"/>
<path d="M12.2921 39.0415C12.161 39.1877 11.8947 39.1482 11.6761 38.9506C11.4575 38.753 11.4059 38.4843 11.537 38.3421C11.6682 38.1998 11.9344 38.2393 12.161 38.433C12.3875 38.6266 12.4312 38.8992 12.2921 39.0415V39.0415Z" fill="white"/>
<path d="M14.0923 39.8158C14.0327 40.0015 13.7625 40.0845 13.4922 40.0055C13.222 39.9264 13.0432 39.7051 13.0948 39.5155C13.1465 39.3258 13.4207 39.2389 13.6949 39.3258C13.9691 39.4127 14.144 39.6222 14.0923 39.8158Z" fill="white"/>
<path d="M16.0557 39.9504C16.0557 40.144 15.8331 40.3099 15.547 40.3139C15.2608 40.3178 15.0264 40.1598 15.0264 39.9662C15.0264 39.7725 15.2489 39.6066 15.535 39.6026C15.8212 39.5987 16.0557 39.7528 16.0557 39.9504Z" fill="white"/>
<path d="M17.8838 39.6458C17.9196 39.8395 17.7208 40.041 17.4347 40.0884C17.1486 40.1358 16.8982 40.0212 16.8624 39.8316C16.8267 39.6419 17.0333 39.4364 17.3115 39.385C17.5897 39.3337 17.848 39.4522 17.8838 39.6458Z" fill="white"/>
</g>
<defs>
<clipPath id="clip0_16_243">
<rect width="48" height="48" fill="white"/>
</clipPath>
</defs>
</svg>

<svg width="48" height="48" fill="none" xmlns="http://www.w3.org/2000/svg"><g clip-path="url(#a)" fill="#fff"><path fill-rule="evenodd" clip-rule="evenodd" d="M24 1A24.086 24.086 0 0 0 8.454 6.693 23.834 23.834 0 0 0 .319 21.044a23.754 23.754 0 0 0 3.153 16.172 23.98 23.98 0 0 0 12.938 10.29c1.192.221 1.641-.518 1.641-1.146 0-.628-.024-2.45-.032-4.442-6.676 1.443-8.087-2.817-8.087-2.817-1.089-2.766-2.663-3.493-2.663-3.493-2.178-1.478.163-1.45.163-1.45 2.413.17 3.68 2.461 3.68 2.461 2.138 3.648 5.616 2.593 6.983 1.976.215-1.545.838-2.596 1.526-3.193-5.333-.6-10.937-2.647-10.937-11.791a9.213 9.213 0 0 1 2.472-6.406c-.246-.6-1.069-3.026.234-6.322 0 0 2.015-.64 6.602 2.446a22.904 22.904 0 0 1 12.017 0c4.583-3.086 6.594-2.446 6.594-2.446 1.307 3.288.484 5.714.238 6.322a9.194 9.194 0 0 1 2.476 6.414c0 9.163-5.615 11.183-10.957 11.772.859.742 1.626 2.193 1.626 4.421 0 3.193-.028 5.762-.028 6.548 0 .636.433 1.38 1.65 1.146a23.98 23.98 0 0 0 12.938-10.291 23.754 23.754 0 0 0 3.151-16.175A23.834 23.834 0 0 0 39.56 6.69 24.086 24.086 0 0 0 24.009 1H24Z"/><path d="M9.089 35.264c-.052.119-.243.154-.398.071-.155-.083-.27-.237-.214-.36.056-.122.242-.153.397-.07.155.083.274.24.215.36ZM10.063 36.342a.4.4 0 0 1-.493-.11c-.155-.166-.187-.395-.068-.498.12-.103.334-.056.489.11.155.166.19.395.072.498ZM11.008 37.714c-.147.102-.397 0-.536-.206a.396.396 0 0 1 0-.569c.147-.099.397 0 .537.202.139.201.143.47 0 .573ZM12.292 39.041c-.131.147-.397.107-.616-.09-.219-.198-.27-.467-.139-.609.131-.142.397-.103.624.091.226.194.27.466.131.608ZM14.092 39.816c-.06.185-.33.268-.6.19-.27-.08-.449-.3-.397-.49.051-.19.326-.277.6-.19.274.087.449.296.397.49ZM16.056 39.95c0 .194-.223.36-.509.364-.286.004-.52-.154-.52-.348 0-.194.222-.36.508-.363.286-.004.52.15.52.347ZM17.884 39.646c.036.194-.163.395-.45.442-.285.048-.536-.067-.572-.256-.035-.19.171-.396.45-.447.278-.051.536.067.572.26Z"/></g><defs><clipPath id="a"><path fill="#fff" d="M0 0h48v48H0z"/></clipPath></defs></svg>
